X:1
T:Noire
T:Noire
%%score { 1 | 2 }
L:1/8
M:4/4
K:Eb
V:1 treble nm="Piano" snm="Pno."
V:2 treble 
V:1
!p! G4 G2 G2- | G!>!G- G2 G2- GG- | G2 G2- GG- G2 |[M:5/4] G2 G2 G2 G2 G2 |[M:4/4]!mp! G2- GG- G4 | %5
 fGGe GGGG | GGGG fGGf |[M:5/4] GGGGGG GGGB |[M:4/4] [CG]CCC CCC[DG] | DDD[DG] GDDD | %10
[M:7/8] !>![EG][EG]E GE EE |[M:4/4] !>![FG]FF!>![FG] [FG]G!>!GG | %12
 !>![CG][CG]G[CG] [CG][CG][CG]!>![DG] | [DG][DG]DD [DG][DG][DG][DG] | [EG]EE[EG] [EG][EG]E[EF] | %15
 [EF][EF][EF][EG] [EG][EG][EG][CEG] |!f! [CG][CG][G,C][G,C] [CG][B,G][G,C][DG] | %17
 [DG][G,D][G,D][DG] [DG][DG][G,D]G, | [EG][G,E][G,E][E,G] [G,E][G,E][E,E][EF] | %19
 [EF][EF][EF][EG] [EG][DG][DG][EG] | [CG][CG][G,C][CG] [G,C][CG][CG][DG] | %21
 [DG][G,D][G,D][DG] [G,D][G,D][B,,B,D][DG] | [E,E][G,E][G,E][EG] [G,E][EG][G,E][EF] | %23
 [F,E][EF][EF][EG] [EG][G,E][EG][EG] |!>(! C[CG][CG][CG] GGGG!>)! | GGGG GGG[Gg] | %26
 [Gg]g!>!gG GgG!>!e | eG!>!cG G!>!d G2 | !>!!fermata!c8 | z8 | z8 | z8 | z8 | z8 |] %34
V:2
 z8 | z2 !>!F4- F2- | F4- F!>!E E2- |[M:5/4] E2- E!>!D- D4- DE |[M:4/4] !>!C4- C2- C-C | %5
 !>![A,C]2- [A,C-]!>![G,C] [G,C]4- | [G,C]4 !>![G,C]2- [G,C]!>![F,C]- |[M:5/4] [F,C]8 z2 | %8
[M:4/4][K:bass]!mf!!<(! !>![A,,E,]4- [A,,E,]2- [A,,E,]!>![B,,G,]-!<)! | [B,,G,]8 | %10
[M:7/8] !>![C,G,]4- [C,G,]2- [C,G,] |[M:4/4] !>![D,B,]2- [D,B,]!>![E,B,]- [E,B,]2 !>![E,B,]2 | %12
 !>![A,,E,]4- [A,,E,]2- [A,,E,]!>![B,,F,]- | [B,,F,]8 | !>![C,G,]4- [C,G,]2- [C,G,]!>![D,B,]- | %15
 [D,B,]2- [D,B,]!>![E,B,]- [E,B,]4 | !>![A,,,A,,]4-!<(! [A,,,A,,]2- [A,,,A,,]!>![B,,,B,,]-!<)! | %17
 [B,,,B,,]8 | !>![C,,C,]4- [C,,C,]2- [C,,C,]!>![D,,D,]- | %19
 [D,,D,]2- [D,,D,][E,,E,]- [E,,E,]2 [E,,E,] z | %20
 !>!A,,,-[A,,,C,]- [A,,,C,]4 [A,,,A,,]!>![B,,,B,,]- | %21
 [B,,,B,,]2- [B,,,-B,,]!>![B,,,-D,] B,,,2 !>!B,,,2 | %22
 !>![C,,,C,,]4- [C,,,C,,]2- [C,,,C,,]!>![D,,,D,,]- | %23
 [D,,,D,,]2- [D,,,D,,]!>![E,,,E,,]- [E,,,E,,]4 | [C,,,C,,]8- | [C,,,C,,]8- | [C,,,C,,]8- | %27
 [C,,,C,,]8- | [C,,,C,,]8 | z8 | z8 | z8 | z8 | z8 |] %34

